packages/core/src/svgs/glink.svg

<svg width="24" height="24" viewBox="0 0 24 24" fill="none" xmlns="http://www.w3.org/2000/svg">
<g clip-path="url(#clip0_31_10832)">
<path d="M0 0H24V24H0V0Z" fill="#000926"/>
<path fill-rule="evenodd" clip-rule="evenodd" d="M15.4284 6.85728L12.0041 3.42871L8.57129 6.85728H15.4284ZM14.0656 6.30014L12.0041 4.23014L9.93415 6.29585H14.0656V6.30014Z" fill="url(#paint0_linear_31_10832)"/>
<path fill-rule="evenodd" clip-rule="evenodd" d="M15.4284 17.1431L12.0041 20.5716L8.57129 17.1431H15.4284ZM14.0656 17.7002L12.0041 19.7702L9.93415 17.7045H14.0656V17.7002Z" fill="url(#paint1_linear_31_10832)"/>
<path fill-rule="evenodd" clip-rule="evenodd" d="M6.85728 8.57129L3.42871 11.9956L6.85728 15.4284V8.57129ZM6.30014 9.93415L4.23014 11.9956L6.29585 14.0656V9.93415H6.30014Z" fill="url(#paint2_linear_31_10832)"/>
<path fill-rule="evenodd" clip-rule="evenodd" d="M17.1431 8.58876L20.5716 12.013L17.1431 15.4416V8.58447V8.58876ZM17.7002 9.95161L19.7702 12.013L17.7045 14.083V9.95161H17.7002Z" fill="url(#paint3_linear_31_10832)"/>
<path d="M6.85693 15.3984V17.1426H8.60122L6.85693 15.3984ZM15.3984 17.1426H17.1426V15.3984L15.3984 17.1426ZM17.1426 8.60122V6.85693H15.3984L17.1426 8.60122ZM8.60122 6.85693H6.85693V8.60122L8.60122 6.85693Z" fill="url(#paint4_linear_31_10832)"/>
<path d="M10.7013 12.7845L10.9584 13.0374C11.2485 13.3268 11.6415 13.4894 12.0513 13.4894C12.4611 13.4894 12.8541 13.3268 13.1441 13.0374L14.5456 11.6359C14.8354 11.3461 14.9982 10.953 14.9982 10.5431C14.9982 10.1332 14.8354 9.74008 14.5456 9.45023C14.2557 9.16039 13.8626 8.99756 13.4527 8.99756C13.0428 8.99756 12.6497 9.16039 12.3599 9.45023L11.6184 10.1917C11.8499 10.1488 12.3856 10.1274 12.6941 10.3374L12.9641 10.0674C13.0956 9.94359 13.27 9.87587 13.4506 9.87857C13.6311 9.88128 13.8034 9.95419 13.9311 10.0818C14.0588 10.2095 14.1317 10.3819 14.1344 10.5624C14.1371 10.7429 14.0694 10.9174 13.9456 11.0488L12.5141 12.4717C12.2656 12.7159 11.8713 12.7159 11.6184 12.4717C11.5584 12.4074 11.4256 12.2145 11.4041 12.0731L10.7013 12.7802V12.7845ZM13.2984 11.2159L13.0413 10.9631C12.7512 10.6736 12.3582 10.5111 11.9484 10.5111C11.5387 10.5111 11.1456 10.6736 10.8556 10.9631L9.45414 12.3645C9.1643 12.6544 9.00146 13.0475 9.00146 13.4574C9.00146 13.8673 9.1643 14.2604 9.45414 14.5502C9.74398 14.8401 10.1371 15.0029 10.547 15.0029C10.9569 15.0029 11.35 14.8401 11.6399 14.5502L12.3813 13.8088C12.1499 13.8517 11.6141 13.8731 11.3056 13.6631L11.0356 13.9331C10.9041 14.0569 10.7297 14.1246 10.5492 14.1219C10.3686 14.1192 10.1963 14.0463 10.0686 13.9186C9.94095 13.791 9.86804 13.6186 9.86534 13.4381C9.86264 13.2576 9.93036 13.0831 10.0541 12.9517L11.4856 11.5245C11.6045 11.406 11.7655 11.3394 11.9334 11.3394C12.1013 11.3394 12.2624 11.406 12.3813 11.5245C12.4413 11.5888 12.5741 11.7817 12.5956 11.9231L13.2984 11.2159Z" fill="url(#paint5_linear_31_10832)"/>
</g>
<defs>
<linearGradient id="paint0_linear_31_10832" x1="11.9999" y1="3.42871" x2="11.9999" y2="6.85728" gradientUnits="userSpaceOnUse">
<stop stop-color="#BD8E3C"/>
<stop offset="1" stop-color="#EBCF66"/>
</linearGradient>
<linearGradient id="paint1_linear_31_10832" x1="11.9999" y1="20.5716" x2="11.9999" y2="17.1431" gradientUnits="userSpaceOnUse">
<stop stop-color="#EBC759"/>
<stop offset="1" stop-color="#C78B35"/>
</linearGradient>
<linearGradient id="paint2_linear_31_10832" x1="6.373" y1="10.0799" x2="6.373" y2="15.0084" gradientUnits="userSpaceOnUse">
<stop stop-color="#C98B36"/>
<stop offset="1" stop-color="#E5C651"/>
</linearGradient>
<linearGradient id="paint3_linear_31_10832" x1="17.1431" y1="9.00019" x2="17.1431" y2="14.6573" gradientUnits="userSpaceOnUse">
<stop stop-color="#C6883B"/>
<stop offset="1" stop-color="#E8CA63"/>
</linearGradient>
<linearGradient id="paint4_linear_31_10832" x1="6.47979" y1="7.61979" x2="16.7398" y2="17.1426" gradientUnits="userSpaceOnUse">
<stop stop-color="#C18843"/>
<stop offset="1" stop-color="#E9D055"/>
</linearGradient>
<linearGradient id="paint5_linear_31_10832" x1="9.68557" y1="14.4345" x2="14.3699" y2="9.97309" gradientUnits="userSpaceOnUse">
<stop stop-color="#C68E3B"/>
<stop offset="1" stop-color="#E4C247"/>
</linearGradient>
<clipPath id="clip0_31_10832">
<rect width="24" height="24" fill="white"/>
</clipPath>
</defs>
</svg>

<svg xmlns="http://www.w3.org/2000/svg" width="24" height="24" fill="none" viewBox="0 0 24 24"><g clip-path="url(#a)"><path fill="#000926" d="M0 0h24v24H0z"/><path fill="url(#b)" fill-rule="evenodd" d="M15.428 6.857 12.004 3.43 8.571 6.857zM14.066 6.3l-2.062-2.07-2.07 2.066h4.132z" clip-rule="evenodd"/><path fill="url(#c)" fill-rule="evenodd" d="m15.428 17.143-3.424 3.429-3.433-3.429zm-1.362.557-2.062 2.07-2.07-2.065h4.132z" clip-rule="evenodd"/><path fill="url(#d)" fill-rule="evenodd" d="M6.857 8.571 3.43 11.996l3.428 3.432zM6.3 9.934l-2.07 2.062 2.066 2.07V9.934z" clip-rule="evenodd"/><path fill="url(#e)" fill-rule="evenodd" d="m17.143 8.589 3.429 3.424-3.429 3.429V8.584zm.557 1.363 2.07 2.061-2.065 2.07V9.952z" clip-rule="evenodd"/><path fill="url(#f)" d="M6.857 15.398v1.745H8.6zm8.541 1.745h1.745v-1.745zM17.143 8.6V6.857h-1.745zM8.6 6.857H6.857V8.6z"/><path fill="url(#g)" d="m10.701 12.785.257.252a1.547 1.547 0 0 0 2.186 0l1.402-1.401A1.545 1.545 0 0 0 12.36 9.45l-.742.742c.232-.043.768-.065 1.076.145l.27-.27a.694.694 0 0 1 .982.982l-1.432 1.423a.64.64 0 0 1-.896 0c-.06-.065-.192-.258-.214-.399l-.703.707zm2.597-1.57-.257-.252a1.547 1.547 0 0 0-2.185 0l-1.402 1.402a1.546 1.546 0 0 0 2.186 2.185l.741-.741c-.231.043-.767.064-1.075-.146l-.27.27a.694.694 0 0 1-.982-.981l1.432-1.428a.634.634 0 0 1 .895 0c.06.065.193.258.215.4z"/></g><defs><linearGradient id="b" x1="12" x2="12" y1="3.429" y2="6.857" gradientUnits="userSpaceOnUse"><stop stop-color="#BD8E3C"/><stop offset="1" stop-color="#EBCF66"/></linearGradient><linearGradient id="c" x1="12" x2="12" y1="20.572" y2="17.143" gradientUnits="userSpaceOnUse"><stop stop-color="#EBC759"/><stop offset="1" stop-color="#C78B35"/></linearGradient><linearGradient id="d" x1="6.373" x2="6.373" y1="10.08" y2="15.008" gradientUnits="userSpaceOnUse"><stop stop-color="#C98B36"/><stop offset="1" stop-color="#E5C651"/></linearGradient><linearGradient id="e" x1="17.143" x2="17.143" y1="9" y2="14.657" gradientUnits="userSpaceOnUse"><stop stop-color="#C6883B"/><stop offset="1" stop-color="#E8CA63"/></linearGradient><linearGradient id="f" x1="6.48" x2="16.74" y1="7.62" y2="17.143" gradientUnits="userSpaceOnUse"><stop stop-color="#C18843"/><stop offset="1" stop-color="#E9D055"/></linearGradient><linearGradient id="g" x1="9.686" x2="14.37" y1="14.434" y2="9.973" gradientUnits="userSpaceOnUse"><stop stop-color="#C68E3B"/><stop offset="1" stop-color="#E4C247"/></linearGradient><clipPath id="a"><path fill="#fff" d="M0 0h24v24H0z"/></clipPath></defs></svg>
